X:2270
T:Engelska efter Ored Andersson
R:Engelska
O:Huaröd, Skåne
N: troligen spelad vid spelmanstävlingen i Lund 1907
S: http://www.smus.se/earkiv/fmk/browselarge.php?lang=sw&katalogid=Sk+4&bildnr=00004
Z: Sven Midgren 2012-03-04
M:2/4
L:1/16
K:G
|: d3c BGBd | gfga bgdB | c2cB Aaag | fdef g4 :|
|: d3(c c)BGB | dcAc cBGB | d2dc BGBd | dcAF G4 :|
(:musicend:)
(:music:)
